X:1
T:Kairos, 11.11.11 D
T:Kairos, 11.11.11 D
T:Henry Tucker, 1863
T:Public Domain Courtesy of the Cyber Hymnal™
C:Henry Tucker, 1863
Z:Public Domain
Z:Courtesy of the Cyber Hymnal™
%%score ( 1 2 ) ( 3 4 )
L:1/8
Q:1/4=110
M:3/4
K:D
V:1 treble 
V:2 treble 
V:3 bass 
V:4 bass 
V:1
 ([FA]>[EG]) | [DF]2 [EG]2 [FA]2 | [GB]2 [FA]2 [FA]2 | [Fd]2 [Ac]2 [GB]2 | %4
 ([GB]2 [FA]2) ([FA][FA]) | [FA]2 [EG]2 [EG]2 | [EG]2 [DF]2 [DF]2 | [DF]2 [CE]2 [CE]2 | %8
 [CE]4 (F>E) | D2 [DF]2 [FA]2 | [GB]2 [FA]2 [FA]2 | [Fd]2 [Ac]2 [GB]2 | ([GB]2 [FA]2) ([FA][FA]) | %13
 [Fd]3 [Fc] [Fd]2 | [GB]2 [Ge]2 [Gd]2 | [Ec]2 [EA]2 [Ec]2 | [Fd]4 [CF]>[CE] | D2 [DF]2 [FA]2 | %18
 [GB]2 [FA]2 [FA]2 | [Fd]2 [Ac]2 [GB]2 | ([GB]2 [FA]2) [FA]2 | [Fd]3 [Fc] [Fd]2 | %22
 [GB]2 [Ge]2 [Gd]2 | [Ec]2 [EA]2 [Ec]2 | !fermata![Fd]4 |] %25
V:2
 x2 | x6 | x6 | x6 | x6 | x6 | x6 | x6 | x4 C2 | D2 x4 | x6 | x6 | x6 | x6 | x6 | x6 | x6 | D2 x4 | %18
 x6 | x6 | x6 | x6 | x6 | x6 | x4 |] %25
V:3
 z2 | F,,2 D,2 D,2 | D,,2 D,2 D,2 | D,,2 D,2 D,2 | (F,,2 D,2) D,2 | C,,2 C,2 C,2 | D,,2 D,2 D,2 | %7
 A,,2 A,2 A,2 | A,,2 A,2 A,2 | D,,2 D,2 D,2 | D,,2 D,2 D,2 | D,,2 D,2 D,2 | (D,,2 D,2) D,2 | %13
 D,,2 D,2 D,2 | G,,2 G,2 G,2 | A,,2 A,2 A,2 | [D,A,]4 [A,,A,]>[A,,A,] | [D,F,]2 [D,A,]2 [D,A,]2 | %18
 [D,D]2 [D,D]2 [D,D]2 | [D,A,]2 [D,A,]2 [D,D]2 | [D,D]4 [D,D]2 | [D,A,]3 [D,A,] [D,A,]2 | %22
 [G,B,]2 [G,B,]2 [G,B,]2 | A,2 [A,C]2 A,2 | !fermata![D,A,]4 |] %25
V:4
 x2 | x6 | x6 | x6 | x6 | x6 | x6 | x6 | x6 | x6 | x6 | x6 | x6 | x6 | x6 | x6 | x6 | x6 | x6 | %19
 x6 | x6 | x6 | x6 | A,2 A,2 x2 | x4 |] %25

